symbolic/64x64/places/folder-deeporange-projects.svg

<svg xmlns="http://www.w3.org/2000/svg" width="64" height="64" version="1"><rect style="opacity:.2" width="56" height="36" x="4" y="22" rx="2.8" ry="2.8"/><path style="fill:#e95420" d="M4 46.2C4 47.751 5.249 49 6.8 49h50.4c1.551 0 2.8-1.249 2.8-2.8V15.8c0-1.551-1.249-2.8-2.8-2.8H32c-4.2 0-5.6-6-9.8-6H6.8A2.794 2.794 0 0 0 4 9.8"/><rect style="opacity:.2" width="56" height="36" x="4" y="20" rx="2.8" ry="2.8"/><rect style="fill:#e4e4e4" width="48" height="22" x="8" y="16" rx="2.8" ry="2.8"/><rect style="fill:#eb6637" width="56" height="36" x="4" y="21" rx="2.8" ry="2.8"/><path style="opacity:.1;fill:#fff" d="M6.8 7C5.25 7 4 8.25 4 9.8v1.001A2.795 2.795 0 0 1 6.8 8H22.2c4.2 0 5.601 6 9.801 6h25.199A2.796 2.796 0 0 1 60 16.801v-1A2.796 2.796 0 0 0 57.199 13H32c-4.2 0-5.601-6-9.801-6z"/><path style="fill:#522413" d="M35 28c-.437.163-.888.374-1.25.674-1.725 1.387-1.374 4.275.314 5.7.35.3.511.439.936.626v3c1.421.687 2 1 3.06 2.014.685.784.679.887.94 1.376V35c.425-.162.824-.338 1.186-.626C42 33 41.925 30.187 40.25 28.75A4.87 4.87 0 0 0 39 28v3c0 1 0 2-1 2h-2c-1 0-1-1-1-2zm-3.5 10.042C26 38.085 24 42.25 24 46h-2.688c-.312 0-.312.313-.312.313v2.375c0 .312.312.312.312.312h20.376S42 49 42 48.688v-2.375S42 46 41.688 46H39c0-3.75-2-8-7.5-7.958zm0 3.971C35 42 36 44.45 36 46h-9c0-1.5 1-3.975 4.5-3.987z"/></svg>

<svg xmlns="http://www.w3.org/2000/svg" width="64" height="64" version="1">
 <rect style="opacity:0.2" width="56" height="36" x="4" y="22" rx="2.8" ry="2.8"/>
 <path style="fill:#e95420" d="M 4,46.2 C 4,47.751 5.2488,49 6.8,49 H 57.2 C 58.751,49 60,47.751 60,46.2 V 15.8 C 60,14.249 58.751,13 57.2,13 H 32 C 27.8,13 26.4,7 22.2,7 H 6.8 C 5.2488,7 4,8.2488 4,9.8"/>
 <rect style="opacity:0.2" width="56" height="36" x="4" y="20" rx="2.8" ry="2.8"/>
 <rect style="fill:#e4e4e4" width="48" height="22" x="8" y="16" rx="2.8" ry="2.8"/>
 <rect style="fill:#eb6637" width="56" height="36" x="4" y="21" rx="2.8" ry="2.8"/>
 <path style="opacity:0.1;fill:#ffffff" d="M 6.8008,7 C 5.2496,7 4,8.2496 4,9.8008 V 10.801 C 4,9.2496 5.2496,8 6.8008,8 H 22.199 C 26.399,8 27.8,14 32,14 H 57.199 C 58.75,14 60,15.25 60,16.801 V 15.801 C 60,14.25 58.75,13 57.199,13 H 32 C 27.8,13 26.399,7 22.199,7 Z"/>
 <path style="fill:#522413" d="M 35,28 C 34.563,28.163 34.112,28.374 33.75,28.674 32.025,30.061 32.376,32.949 34.064,34.374 34.414,34.674 34.575,34.813 35,35 V 38 C 36.421,38.687 37,39 38.06,40.014 38.745,40.798 38.739,40.901 39,41.39 V 35 C 39.425,34.838 39.824,34.662 40.186,34.374 42,33 41.925,30.187 40.25,28.75 39.888,28.45 39.438,28.175 39,28 V 31 C 39,32 39,33 38,33 H 36 C 35,33 35,32 35,31 Z M 31.5,38.042 C 26,38.085 24,42.25 24,46 H 21.312 C 21,46 21,46.313 21,46.313 V 48.688 C 21,49 21.312,49 21.312,49 H 41.688 C 41.688,49 42,49 42,48.688 V 46.313 C 42,46.313 42,46 41.688,46 H 39 C 39,42.25 37,38 31.5,38.042 Z M 31.5,42.013 C 35,42 36,44.45 36,46 H 27 C 27,44.5 28,42.025 31.5,42.013 Z"/>
</svg>
